svgs/duotone/lasso.svg

<svg xmlns="http://www.w3.org/2000/svg" viewBox="0 0 576 512"><!-- Font Awesome Pro 6.0.0-alpha2 by @fontawesome - https://fontawesome.com License - https://fontawesome.com/license (Commercial License) --><defs><style>.fa-secondary{opacity:.4}</style></defs><path d="M178.131 384.211C179.742 389.918 180.609 395.809 180.711 401.742C181.041 427.086 160.762 447.906 135.414 448.234C135.256 448.238 135.098 448.238 134.939 448.242H48C39.188 448.242 32.033 455.367 32 464.18V496.059C32.033 504.875 39.188 512 48 512H134.939C194.32 512 243.74 464.77 244.699 405.617C245.104 390.262 242.883 374.949 238.131 360.34C223.891 374.461 202.48 383.688 178.131 384.211ZM288 0C126.5 0 0 79.641 0 181.297C0 231.078 30.221 277.141 85 311C88.539 313.172 92.41 315.309 96.369 317.449C97.76 295.379 113.1 276.449 135.619 265.859C129.711 262.859 123.699 259.859 118.721 256.789C98.311 244.172 64 217.57 64 181.297C64 118.687 168.689 63.758 288 63.758S512 118.687 512 181.297C512 243.91 407.311 298.82 288 298.82C275.18 298.82 262.58 298.02 250.119 296.82C253.936 304.176 255.949 312.332 256 320.617C256 335.547 249.301 349.09 238.52 359.961C254.955 361.703 271.473 362.578 288 362.578C449.5 362.578 576 282.938 576 181.297C576 79.66 449.5 0 288 0Z" class="fa-secondary"/><path d="M256 320.62C256 355.83 220.18 384.38 176 384.38S96 355.83 96 320.62S131.82 256.86 176 256.86S256 285.41 256 320.62Z" class="fa-primary"/></svg>

<svg xmlns="http://www.w3.org/2000/svg" viewBox="0 0 576 512"><!-- Font Awesome Pro 5.15.1 by @fontawesome - https://fontawesome.com License - https://fontawesome.com/license (Commercial License) --><defs><style>.fa-secondary{opacity:.4}</style></defs><path d="M178.13 384.21a68.83 68.83 0 0 1 2.58 17.53 45.9 45.9 0 0 1-45.77 46.5H48a16 16 0 0 0-16 15.94v31.88A16 16 0 0 0 48 512h86.94c59.38 0 108.8-47.23 109.76-106.38a134.89 134.89 0 0 0-6.57-45.28c-14.24 14.12-35.65 23.35-60 23.87zM288 0C126.5 0 0 79.64 0 181.3c0 49.78 30.22 95.84 85 129.7 3.54 2.17 7.41 4.31 11.37 6.45 1.39-22.07 16.73-41 39.25-51.59-5.91-3-11.92-6-16.9-9.07C98.31 244.17 64 217.57 64 181.3c0-62.61 104.69-117.54 224-117.54s224 54.93 224 117.54-104.69 117.52-224 117.52c-12.82 0-25.42-.8-37.88-2a52.39 52.39 0 0 1 5.88 23.8c0 14.93-6.7 28.47-17.48 39.34a470.13 470.13 0 0 0 49.48 2.62c161.5 0 288-79.64 288-181.28S449.5 0 288 0z" class="fa-secondary"/><path d="M256 320.62c0 35.21-35.82 63.76-80 63.76s-80-28.55-80-63.76 35.82-63.76 80-63.76 80 28.55 80 63.76z" class="fa-primary"/></svg>
